X: 119
T:Red-Haired Lass, The
M:C|
L:1/8
R:Reel
K:G
DGGF G2DG|G2BG AGEG|DGGF GABd|eBdB cBAB|!
DGGF G2DG|G2BG AGEG|DGGF GABd|egdB cABc|]!
d2gd edgd|d2gd BABc|d2gd edef|gedB c2Bc|!
d2gd edgd|d2gd BGBd|c3A B3A|GABd edBG|]!
